resources/haticons/SVG/subject.svg

<!-- Generated by IcoMoon.io -->
<svg version="1.1" xmlns="http://www.w3.org/2000/svg" width="24" height="24" viewBox="0 0 24 24">
<title>subject</title>
<path d="M3.984 5.016h16.031v1.969h-16.031v-1.969zM3.984 15v-2.016h16.031v2.016h-16.031zM20.016 9v2.016h-16.031v-2.016h16.031zM14.016 17.016v1.969h-10.031v-1.969h10.031z"></path>
</svg>

<svg xmlns="http://www.w3.org/2000/svg" width="24" height="24"><path d="M3.984 5.016h16.031v1.969H3.984V5.016zm0 9.984v-2.016h16.031V15H3.984zm16.032-6v2.016H3.985V9h16.031zm-6 8.016v1.969H3.985v-1.969h10.031z"/></svg>
